48x48/apps/omnetpp.svg

<svg height="48" width="48" xmlns="http://www.w3.org/2000/svg"><rect height="36" opacity=".2" rx="1.8" width="36" x="6" y="9"/><rect fill="#008383" height="36" rx="1.8" width="36" x="6" y="8"/><path d="m7.8 8c-.995 0-1.8.804-1.8 1.8v1c0-.995.804-1.8 1.8-1.8h32.4c.996 0 1.8.804 1.8 1.8v-1c0-.996-.804-1.8-1.8-1.8z" fill="#f4f4f7" opacity=".1"/><path d="m11 13v26h26v-26z" fill="#d4d5cc"/><path d="m34.194 11.216c-1.92 4.016-7.5 11.546-15.235 17.944-6.548 5.414-12.848 8.443-16.959 9.84 4.82-1.33 12.304-4.059 19.94-9.2 7.424-4.992 14.36-10.565 17.759-13.177-2.76-.41-4.783-2.761-5.505-5.407z" opacity=".1"/><path d="m34.194 10.216c-1.92 4.016-7.5 11.546-15.235 17.944-6.548 5.414-12.848 8.443-16.959 9.84 4.82-1.33 12.304-4.059 19.94-9.2 7.424-4.992 14.36-10.565 17.759-13.177-2.76-.41-4.783-2.761-5.505-5.407z" fill="#d43519"/><path d="m6 33h5v5h-5z" fill="#008383"/><path d="m11 39h26v1h-26zm34-28.002a6.004 6.004 0 0 1 -6 6.002c-3.315 0-6-2.69-6-6.002a5.997 5.997 0 0 1 6-5.998 6 6 0 0 1 6 5.998" opacity=".2"/><path d="m45 9.998a6.004 6.004 0 0 1 -6 6.002c-3.315 0-6-2.69-6-6.002a5.997 5.997 0 0 1 6-5.998 6 6 0 0 1 6 5.998" fill="#f84529"/><path d="m39 4c-3.315 0-6 2.684-6 5.998 0 .169.012.335.025.5a5.995 5.995 0 0 1 11.95 0c.013-.165.025-.331.025-.5a6 6 0 0 0 -6-5.998z" fill="#f4f4f7" opacity=".2"/></svg>

<svg height="48" width="48" xmlns="http://www.w3.org/2000/svg">
    <rect height="36" opacity=".2" rx="1.8" width="36" x="6" y="9"/>
    <rect fill="#008383" height="36" rx="1.8" width="36" x="6" y="8"/>
    <path d="M7.8 8C6.805 8 6 8.804 6 9.8v1C6 9.805 6.804 9 7.8 9h32.4c.996 0 1.8.804 1.8 1.8v-1c0-.996-.804-1.8-1.8-1.8z" fill="#f4f4f7" opacity=".1"/>
    <path d="M11 13v26h26V13z" fill="#d4d5cc"/>
    <path d="M34.194 11.216c-1.92 4.016-7.5 11.546-15.235 17.944C12.411 34.574 6.111 37.603 2 39c4.82-1.33 12.304-4.059 19.94-9.2 7.424-4.992 14.36-10.565 17.759-13.177-2.76-.41-4.783-2.761-5.505-5.407z" opacity=".1"/>
    <path d="M34.194 10.216c-1.92 4.016-7.5 11.546-15.235 17.944C12.411 33.574 6.111 36.603 2 38c4.82-1.33 12.304-4.059 19.94-9.2 7.424-4.992 14.36-10.565 17.759-13.177-2.76-.41-4.783-2.761-5.505-5.407z" fill="#d43519"/>
    <path d="M6 33h5v5H6z" fill="#008383"/>
    <path d="M11 39h26v1H11zm34-28.002A6.004 6.004 0 0 1 39 17c-3.315 0-6-2.69-6-6.002A5.997 5.997 0 0 1 39 5a6 6 0 0 1 6 5.998" opacity=".2"/>
    <path d="M45 9.998A6.004 6.004 0 0 1 39 16c-3.315 0-6-2.69-6-6.002A5.997 5.997 0 0 1 39 4a6 6 0 0 1 6 5.998" fill="#f84529"/>
    <path d="M39 4c-3.315 0-6 2.684-6 5.998 0 .169.012.335.025.5a5.995 5.995 0 0 1 11.95 0 6.34 6.34 0 0 0 .025-.5A6 6 0 0 0 39 4z" fill="#f4f4f7" opacity=".2"/>
</svg>
